X:1
T:Boys Of Ballycastle, The
M:4/4
L:1/8
R:hornpipe
C:Traditional
K:Edor
ef | (3(f/g/f/)f ed ed Bd | ed (3efg {_B}=B2 BA | GF GA BA (3Bcd | (3(efe) A2 A2 ga |
(3(aba) gf gf ed | ed (3efg {_B}=B2 BA | GF GA (3B=cB (3ABA | G2 E2 E2 :|
|: gf | eB BA {_B}=BBgf | eB BA {_B}=BB gf | ed ef gf ga | be(3(e/f/e/)e ee ga  |
(3(aba) gf gf ed | ed (3efg {_B}=B2 BA | GF GA (3B=cB (3ABA | G2 E2 E2 :|

